!!!OTL: Wuge fangyang
!!!ARE: Asia, China,ˇNingxia, Yinchuan
!! I, 192
!!!SCT: C1429
!!!YEM: Copyright 1995, estate of Helmut Schaffrath.
**kern
*ICvox
*Ivox
*M3/8
*k[b-]
*F:
{8f
8d
8d
=1
4.dd
=2
4.dd
=3
8dd
8dd
8ff
=4
4.dd}
=5
{4dd
16dd
16cc
=6
4.a
=7
4cc
8a
=8
4g
8f
=9
4.d}
=10
{4g
16g
16a
=11
4dd
16dd
16cc
=12
4a
8cc
=13
4a
8g}
=14
{4g
16f
16g
=15
4.a
=16
4cc
8a
=17
4g
8f
=18
4.d}
==
!!!AGN: Xiaodiao, Biaoda aiqing
!!!ONB: ESAC (Essen Associative Code) Database: HUANG
!!!AMT: simple triple
!!!AIN: vox
!!!EED: Helmut Schaffrath
!!!EEV: 1.0
*-
!!!OTL: Buyao meiren ye cheng qin
!!!ARE: Asia, China,ˇYunnan, Heqing, Dianbei
!! II, 80
!!!SCT: C1492
!!!YEM: Copyright 1995, estate of Helmut Schaffrath.
**kern
*ICvox
*Ivox
!! Mixed meters:  3/4; 2/4; 4/4
*M2/4
*k[f#]
*G:
{4ee
4aa
=1
*M3/4
4bb
2aa
=2
4ee
4bb
4aa
=3
4aa
4ee
4ee
=4
4aa
4dd
4ee
=5
2.ee
=6
4dd
4b
4r}
=7
{4ee
4aa
4bb
=8
*M2/4
2aa
=9
*M3/4
4ddd
4ee
4dd
=10
*M2/4
2ee
=11
4dd
4b
=12
*M3/4
4ee
4gg
4aa
=13
4ddd
4gg
4ee
=14
*M4/4
4dd
4ee
2dd
=15
4b
2a}
==
!!!AGN: Shange. NannÅ qing
!!!AMT: irregular
!!!AIN: vox
!!!EED: Helmut Schaffrath
!!!EEV: 1.0
*-
